X: 1
T: The One That Was Lost
R: jig
M: 6/8
L: 1/8
K: Edor
| f |: edB BAF | E2 D EFA | BAF D2 F |AFA def |
edB BAF | E2 D EFA | dfb afd |1 e2f g2f :|2 efe e2 ||
d | Bee efa | baf edB | ~d3 Bdd |AFA dcd |
Bee efa | baf edB | dfb afd |efe e2 d |
Bee efa | baf edB | ~d3 Bdd |AFA def |
{f}g2 e fed | BeB dBA | dfb afd |efe e2 ||

